app/images/svg/calendar.svg

<svg width="25" height="25" viewBox="0 0 25 25" fill="none" xmlns="http://www.w3.org/2000/svg">
<g clip-path="url(#clip0_368_2084)">
<path d="M5.93262 0.0683594C5.75195 0.151367 5.59082 0.322266 5.52246 0.50293C5.49316 0.581055 5.46875 0.932617 5.46875 1.29395V1.94336L4.04297 1.96289C2.6416 1.97754 2.60254 1.98242 2.24121 2.10938C1.22559 2.46582 0.517578 3.16895 0.161133 4.1748L0.0244141 4.56543V13.4766V22.3877L0.161133 22.7783C0.517578 23.7842 1.2207 24.4824 2.24121 24.8438L2.6123 24.9756H12.5H22.3877L22.7783 24.8389C23.7842 24.4824 24.4824 23.7793 24.8438 22.7588L24.9756 22.3877V13.4766V4.56543L24.8438 4.19434C24.4824 3.17383 23.7842 2.4707 22.7783 2.11426C22.3926 1.98242 22.3779 1.97754 20.9619 1.96289L19.5361 1.94336L19.5215 1.2207C19.5068 0.429688 19.4824 0.356445 19.1699 0.126953C18.9795 -0.0146484 18.5205 -0.0146484 18.3301 0.126953C18.0176 0.356445 17.9932 0.429688 17.9785 1.22559L17.9639 1.95312H12.5H7.03613L7.02148 1.22559C7.00684 0.43457 6.98242 0.356445 6.67969 0.131836C6.51367 0.00976562 6.12793 -0.0244141 5.93262 0.0683594ZM5.47852 4.04785C5.49316 4.62402 5.53711 4.73633 5.83008 4.95117C6.02051 5.09277 6.47949 5.09277 6.66992 4.95117C6.96289 4.73633 7.00684 4.62402 7.02148 4.04785L7.04102 3.51562H12.5H17.959L17.9785 4.04785C17.9932 4.62402 18.0371 4.73633 18.3301 4.95117C18.5205 5.09277 18.9795 5.09277 19.1699 4.95117C19.4629 4.73633 19.5068 4.62402 19.5215 4.04785L19.541 3.51074L20.8643 3.52539L22.1924 3.54004L22.4707 3.67676C22.8223 3.84766 23.1055 4.13086 23.2764 4.48242C23.4131 4.76074 23.4131 4.76562 23.4277 5.89355L23.4424 7.03125H12.5049H1.5625V5.99121C1.5625 5.21973 1.58203 4.8877 1.63086 4.71191C1.78223 4.21875 2.20703 3.77441 2.7002 3.60352C2.91992 3.53027 3.13477 3.52051 4.20898 3.51562H5.45898L5.47852 4.04785ZM23.4277 15.3906L23.4131 22.1924L23.2812 22.4609C23.1104 22.8076 22.8076 23.1104 22.4658 23.2812L22.1924 23.4131H12.5H2.80762L2.53906 23.2812C2.19238 23.1104 1.88965 22.8076 1.71875 22.4658L1.58691 22.1924L1.57227 15.3906L1.5625 8.59375H12.5H23.4375L23.4277 15.3906Z" fill="#666981"/>
</g>
<defs>
<clipPath id="clip0_368_2084">
<rect width="25" height="25" fill="white"/>
</clipPath>
</defs>
</svg>

<svg width="25" height="25" viewBox="0 0 25 25" fill="none" xmlns="http://www.w3.org/2000/svg"><g clip-path="url(#clip0_368_2084)"><path d="M5.933.068a.828.828 0 00-.41.435c-.03.078-.054.43-.054.79v.65l-1.426.02c-1.401.015-1.44.02-1.802.146C1.226 2.466.518 3.17.161 4.175l-.137.39v17.822l.137.391c.357 1.006 1.06 1.704 2.08 2.066l.371.132h19.776l.39-.137c1.006-.357 1.704-1.06 2.066-2.08l.132-.371V4.565l-.132-.37c-.362-1.021-1.06-1.724-2.066-2.08-.385-.133-.4-.137-1.816-.152l-1.426-.02-.015-.722C19.508.43 19.482.356 19.17.127c-.19-.142-.65-.142-.84 0-.312.23-.337.303-.351 1.099l-.015.727H7.036l-.015-.727C7.007.435 6.982.356 6.68.132 6.514.01 6.128-.024 5.933.068zm-.454 3.98c.014.576.058.688.351.903.19.142.65.142.84 0 .293-.215.337-.327.351-.903l.02-.532h10.918l.02.532c.014.576.058.688.351.903.19.142.65.142.84 0 .293-.215.337-.327.351-.903l.02-.537 1.323.014 1.328.015.279.137c.351.17.634.454.805.805.137.279.137.284.152 1.412l.014 1.137H1.562v-1.04c0-.771.02-1.103.069-1.28A1.771 1.771 0 012.7 3.605c.219-.074.434-.083 1.508-.088h1.25l.02.532zM23.428 15.39l-.015 6.801-.132.269c-.17.347-.473.65-.815.82l-.274.132H2.808l-.269-.132a1.865 1.865 0 01-.82-.815l-.132-.274-.015-6.801-.01-6.797h21.876l-.01 6.797z" fill="#666981"/></g><defs><clipPath id="clip0_368_2084"><path fill="#fff" d="M0 0h25v25H0z"/></clipPath></defs></svg>
